X:114
T:Fishers Hornpipe
O:No 114 Wm Clarke MS  Feltwell, Norfolk
I:abc2nwc
M:2/2
L:1/8
K:G
d2|gdBd cedc|BdBd cedc|BGBG cAcA|dBAG GFED|
gdBd cedc|BdBd cedc|Bdgb bagf|g2g2g2:|
|:(fg)|afdf abc'a|bgBg bc'd'b|afdf abc'b|agfe d3d|
ecGc ecge|dBGB dBgd|egfe dcBA|G2G2G2:|

